view/frontend/web/images/step2.svg

<svg width="37" height="37" viewBox="0 0 37 37" fill="none" xmlns="http://www.w3.org/2000/svg">
<path d="M36.8571 18.0729C36.8571 28.0141 28.7982 36.0729 18.8571 36.0729C8.91593 36.0729 0.857056 28.0141 0.857056 18.0729C0.857056 8.13181 8.91593 0.072937 18.8571 0.072937C28.7982 0.072937 36.8571 8.13181 36.8571 18.0729ZM2.83706 18.0729C2.83706 26.9205 10.0095 34.0929 18.8571 34.0929C27.7047 34.0929 34.8771 26.9205 34.8771 18.0729C34.8771 9.22534 27.7047 2.05294 18.8571 2.05294C10.0095 2.05294 2.83706 9.22534 2.83706 18.0729Z" fill="#C4C4C4"/>
<path d="M19.4142 1.07206C19.4321 0.525595 19.8901 0.0942869 20.4347 0.142209C22.4555 0.320013 24.4342 0.838392 26.2864 1.67765C28.4394 2.65328 30.3792 4.04343 31.995 5.76873C33.6108 7.49404 34.871 9.52071 35.7036 11.733C36.5362 13.9453 36.9248 16.3 36.8474 18.6625C36.77 21.025 36.228 23.3492 35.2523 25.5022C34.2767 27.6553 32.8866 29.5951 31.1613 31.2109C29.436 32.8267 27.4093 34.0869 25.197 34.9195C23.2939 35.6357 21.2855 36.0234 19.2574 36.0685C18.7107 36.0806 18.282 35.6203 18.2999 35.0738C18.3178 34.5273 18.7757 34.1021 19.3222 34.0862C21.0902 34.0348 22.8399 33.6909 24.4996 33.0663C26.4685 32.3254 28.2723 31.2038 29.8078 29.7657C31.3433 28.3277 32.5806 26.6012 33.4489 24.685C34.3172 22.7688 34.7996 20.7003 34.8685 18.5977C34.9374 16.495 34.5915 14.3994 33.8505 12.4304C33.1095 10.4615 31.9879 8.65772 30.5499 7.1222C29.1118 5.58667 27.3854 4.34944 25.4691 3.48113C23.8539 2.74921 22.1305 2.2915 20.3696 2.1245C19.8253 2.07288 19.3963 1.61853 19.4142 1.07206Z" fill="#0B1643"/>
</svg>

<svg xmlns="http://www.w3.org/2000/svg" width="37" height="37" fill="none" xmlns:v="https://vecta.io/nano"><g clip-path="url(#A)"><circle cx="19" cy="18" r="17" fill="#fff"/><path d="M36.857 18.073c0 9.941-8.059 18-18 18s-18-8.059-18-18 8.059-18 18-18 18 8.059 18 18zm-34.02 0c0 8.848 7.172 16.02 16.02 16.02s16.02-7.172 16.02-16.02-7.172-16.02-16.02-16.02-16.02 7.172-16.02 16.02z" fill="#c4c4c4"/><path d="M19.414 1.072c.018-.546.476-.978 1.02-.93a18 18 0 0 1 11.56 5.627 18 18 0 0 1 4.852 12.894 18 18 0 0 1-5.686 12.548 18 18 0 0 1-11.904 4.858c-.547.012-.975-.448-.957-.995s.476-.972 1.022-.988a16.02 16.02 0 0 0 10.486-4.321 16.02 16.02 0 0 0 5.061-11.168A16.02 16.02 0 0 0 30.55 7.122a16.02 16.02 0 0 0-10.18-4.998c-.544-.052-.973-.506-.955-1.052z" fill="#0b1643"/></g><defs><clipPath id="A"><path fill="#fff" d="M0 0h37v37H0z"/></clipPath></defs></svg>
